assets/vintage-color/VintageColor1.svg

<?xml version="1.0" encoding="UTF-8"?>
<svg width="149px" height="93px" viewBox="0 0 149 93" version="1.1" xmlns="http://www.w3.org/2000/svg" xmlns:xlink="http://www.w3.org/1999/xlink">
    <!-- Generator: Sketch 49 (51002) - http://www.bohemiancoding.com/sketch -->
    <title>vintage-logo-1</title>
    <desc>Created with Sketch.</desc>
    <defs>
        <polygon id="path-1" points="0.8271 0.6745 134.397 0.6745 134.397 13.2395 0.8271 13.2395"></polygon>
        <polygon id="path-3" points="0 93 148.397 93 148.397 0.651 0 0.651"></polygon>
    </defs>
    <g id="Page-1" stroke="none" stroke-width="1" fill="none" fill-rule="evenodd">
        <g id="vintage-logo-1" transform="translate(0.000000, -1.000000)">
            <path d="M5.2992,61.1638 L0.0002,73.4468 L3.2112,73.4468 L4.1062,71.1838 L9.4752,71.1838 L10.3532,73.4468 L13.6872,73.4468 L8.5102,61.1638 L5.2992,61.1638 Z M6.8082,64.2698 L8.5632,68.8148 L5.0182,68.8148 L6.8082,64.2698 Z" id="Fill-1" fill="#58595B"></path>
            <g id="Group-11" transform="translate(0.000000, 0.348700)">
                <g id="Group-4" transform="translate(14.000000, 60.000000)">
                    <mask id="mask-2" fill="white">
                        <use xlink:href="#path-1"></use>
                    </mask>
                    <g id="Clip-3"></g>
                    <path d="M12.1631,13.0985 L12.1631,0.8155 L9.2501,0.8155 L9.2501,8.3955 L3.5821,0.8155 L0.8271,0.8155 L0.8271,13.0985 L3.7581,13.0985 L3.7581,5.5355 L9.4081,13.0985 L12.1631,13.0985 Z M14.6191,0.8155 L14.6191,13.0985 L19.7781,13.0985 C23.7261,13.0985 26.4291,10.5895 26.4291,6.9565 C26.4291,3.3065 23.7621,0.8155 19.9011,0.8155 L14.6191,0.8155 Z M17.7431,3.3065 L19.8311,3.3065 C21.8141,3.3065 23.2531,4.7985 23.2531,6.9745 C23.2531,9.1325 21.8841,10.6065 19.9721,10.6065 L17.7431,10.6065 L17.7431,3.3065 Z M35.4831,13.0985 L39.0281,13.0985 L36.4491,9.0455 C37.8871,8.3255 38.6771,6.9745 38.6771,5.0975 C38.6771,2.3595 36.8171,0.8155 33.5711,0.8155 L28.0781,0.8155 L28.0781,13.0985 L31.2021,13.0985 L31.2021,9.6415 L33.5711,9.6415 L33.6581,9.6415 L35.4831,13.0985 Z M31.2021,7.1845 L31.2021,3.2715 L33.5711,3.2715 C34.9221,3.2715 35.7111,3.9215 35.7111,5.2025 C35.7111,6.5005 34.9221,7.1845 33.5711,7.1845 L31.2021,7.1845 Z M50.3981,3.2715 L50.3981,0.8155 L40.7821,0.8155 L40.7821,13.0985 L50.5921,13.0985 L50.5921,10.6415 L43.9061,10.6415 L43.9061,8.1675 L49.7671,8.1675 L49.7671,5.7105 L43.9061,5.7105 L43.9061,3.2715 L50.3981,3.2715 Z M66.4191,13.0985 L70.4731,0.8155 L67.2791,0.8155 L64.9101,9.8525 L62.5061,0.8155 L59.4531,0.8155 L57.1011,9.8525 L54.6971,0.8155 L51.3631,0.8155 L55.3821,13.0985 L58.6111,13.0985 L60.9271,4.6055 L63.2081,13.0985 L66.4191,13.0985 Z M82.8081,0.7975 L75.4551,0.7975 L75.4551,3.3245 L79.6671,3.3245 L79.6671,9.0455 C79.6671,10.0455 79.1761,10.5545 78.3511,10.5545 C77.6321,10.5545 76.6491,10.0985 75.7711,9.1855 L74.3321,11.2735 C75.4201,12.5195 76.8251,13.2395 78.5611,13.2395 C81.1761,13.2395 82.8081,11.7295 82.8081,9.1155 L82.8081,0.7975 Z M90.8801,0.7095 C87.0901,0.7095 84.2471,3.3595 84.2471,6.9395 C84.2471,10.5365 87.0901,13.2395 90.8801,13.2395 C94.6881,13.2395 97.5311,10.5185 97.5311,6.9395 C97.5311,3.3775 94.6881,0.7095 90.8801,0.7095 Z M90.9151,3.3245 C92.8101,3.3245 94.3191,4.8865 94.3191,6.9565 C94.3191,9.0275 92.8101,10.6245 90.9151,10.6245 C89.0381,10.6245 87.4401,9.0275 87.4401,6.9565 C87.4401,4.8865 89.0201,3.3245 90.9151,3.3245 Z M110.5161,13.0985 L110.5161,0.8155 L107.6021,0.8155 L107.6021,8.3955 L101.9341,0.8155 L99.1801,0.8155 L99.1801,13.0985 L102.1101,13.0985 L102.1101,5.5355 L107.7601,13.0985 L110.5161,13.0985 Z M122.5881,3.2715 L122.5881,0.8155 L112.9721,0.8155 L112.9721,13.0985 L122.7811,13.0985 L122.7811,10.6415 L116.0951,10.6415 L116.0951,8.1675 L121.9561,8.1675 L121.9561,5.7105 L116.0951,5.7105 L116.0951,3.2715 L122.5881,3.2715 Z M129.5191,0.6745 C126.5711,0.6745 124.6231,2.1135 124.6231,4.3775 C124.6231,8.7295 131.1161,7.4305 131.1161,9.6065 C131.1161,10.3085 130.5011,10.6775 129.5191,10.6775 C128.2381,10.6775 126.3431,9.9405 125.0791,8.8345 L123.8691,11.2385 C125.3251,12.4315 127.4311,13.2035 129.4841,13.2035 C132.2211,13.2035 134.3971,11.9055 134.3971,9.4485 C134.3971,5.0095 127.9041,6.2205 127.9041,4.0965 C127.9041,3.4995 128.4491,3.2015 129.2561,3.2015 C130.2561,3.2015 131.8881,3.7275 133.1861,4.4825 L134.3621,2.0435 C133.0991,1.2185 131.2911,0.6745 129.5191,0.6745 Z" id="Fill-2" fill="#58595B" mask="url(#mask-2)"></path>
                </g>
                <path d="M97.085,27.9261 C106.11,17.0561 112.5,10.4031 116.321,7.9661 C112.302,8.2291 107.757,9.8101 102.751,12.7741 C98.995,15.0141 94.647,18.3081 89.707,22.5241 C86.018,25.8181 82.263,29.1121 78.573,32.4051 C75.411,23.8421 70.866,19.5601 64.937,19.5601 C61.972,19.5601 59.667,20.7451 57.954,23.1171 C56.439,25.2251 55.648,27.7941 55.648,30.8901 C55.648,35.8311 58.085,40.9041 62.895,45.9761 C55.978,50.8511 49.522,53.2891 43.725,53.2891 C41.88,53.2891 40.101,52.9591 38.388,52.2351 C36.214,51.3121 35.161,50.0611 35.161,48.4801 C35.49,48.7431 35.885,48.8751 36.28,48.8751 C37.795,48.8751 38.586,48.0191 38.586,46.3721 C38.586,44.9881 37.927,44.3291 36.61,44.3291 C34.831,44.3291 33.909,45.5811 33.909,48.0191 C33.909,49.9951 35.095,51.5101 37.466,52.6301 C39.377,53.5521 41.419,54.0131 43.593,54.0131 C49.653,54.0131 56.373,51.5101 63.619,46.4381 C65.662,47.9531 67.309,49.0071 68.494,49.6661 C69.877,50.3241 71.722,50.9171 74.028,51.5101 L72.447,54.0131 L76.729,54.0131 L78.046,51.8401 C82.263,51.3121 86.215,49.7971 90.036,47.1621 L90.168,46.7671 L89.97,46.3721 L89.707,46.4381 C87.928,47.2281 86.149,48.0851 84.371,48.9411 C82.394,49.8631 80.484,50.5221 78.771,50.8511 C90.827,35.7651 96.953,28.0581 97.085,27.9261 M79.298,38.8621 C79.298,37.4121 79.101,35.5681 78.771,33.3281 C88.587,24.7641 94.121,20.0211 95.306,19.0981 C102.751,13.3011 108.943,9.9421 113.686,9.0191 C110.524,10.3371 104.463,15.9361 95.57,25.7521 C89.707,32.4711 83.91,39.2571 78.046,45.9101 C78.903,43.6051 79.298,41.2331 79.298,38.8621 M56.834,31.5501 C56.834,28.6511 57.625,26.2791 59.14,24.3691 C60.787,22.3261 63.026,21.2731 65.793,21.2731 C71.722,21.2731 75.741,25.1591 77.849,32.9991 C75.939,34.9091 73.567,37.0171 70.866,39.3231 C70.537,39.5861 68.099,41.6291 63.553,45.3841 C59.074,40.6401 56.834,36.0291 56.834,31.5501 M64.278,45.8441 C70.998,40.2451 75.609,36.2921 78.046,33.9871 C78.31,35.4361 78.442,36.8851 78.442,38.2691 C78.442,42.8141 77.124,46.9651 74.555,50.7191 C70.932,49.9951 67.506,48.4141 64.278,45.8441" id="Fill-5" fill="#58595B"></path>
                <mask id="mask-4" fill="white">
                    <use xlink:href="#path-3"></use>
                </mask>
                <g id="Clip-8"></g>
                <path d="M38.277,83.386 L40.789,83.386 L40.789,82.349 L38.277,82.349 L38.277,83.386 Z M52.459,79.047 C50.86,79.047 49.804,79.827 49.804,81.055 C49.804,83.415 53.325,82.711 53.325,83.89 C53.325,84.271 52.992,84.471 52.459,84.471 C51.764,84.471 50.736,84.071 50.051,83.472 L49.395,84.775 C50.185,85.422 51.326,85.841 52.439,85.841 C53.924,85.841 55.104,85.137 55.104,83.805 C55.104,81.397 51.584,82.054 51.584,80.903 C51.584,80.579 51.878,80.417 52.316,80.417 C52.858,80.417 53.743,80.703 54.447,81.112 L55.085,79.789 C54.399,79.342 53.419,79.047 52.459,79.047 Z M63.975,80.484 L63.975,79.114 L58.285,79.114 L58.285,80.484 L60.274,80.484 L60.274,85.784 L61.967,85.784 L61.967,80.484 L63.975,80.484 Z M73.55,79.123 L71.866,79.123 L71.866,82.987 C71.866,83.89 71.324,84.442 70.524,84.442 C69.716,84.442 69.135,83.89 69.135,82.987 L69.135,79.123 L67.442,79.123 L67.442,82.987 C67.442,84.747 68.641,85.86 70.515,85.86 C72.38,85.86 73.55,84.747 73.55,82.987 L73.55,79.123 Z M77.626,79.123 L77.626,85.784 L80.424,85.784 C82.564,85.784 84.03,84.423 84.03,82.453 C84.03,80.474 82.584,79.123 80.49,79.123 L77.626,79.123 Z M79.32,80.474 L80.452,80.474 C81.527,80.474 82.308,81.284 82.308,82.463 C82.308,83.634 81.565,84.433 80.528,84.433 L79.32,84.433 L79.32,80.474 Z M87.783,85.784 L89.476,85.784 L89.476,79.123 L87.783,79.123 L87.783,85.784 Z M96.824,79.066 C94.769,79.066 93.227,80.503 93.227,82.444 C93.227,84.395 94.769,85.86 96.824,85.86 C98.889,85.86 100.43,84.385 100.43,82.444 C100.43,80.513 98.889,79.066 96.824,79.066 Z M96.843,80.484 C97.871,80.484 98.689,81.331 98.689,82.453 C98.689,83.577 97.871,84.442 96.843,84.442 C95.825,84.442 94.959,83.577 94.959,82.453 C94.959,81.331 95.815,80.484 96.843,80.484 Z M109.104,83.386 L111.616,83.386 L111.616,82.349 L109.104,82.349 L109.104,83.386 Z" id="Fill-7" fill="#58595B" mask="url(#mask-4)"></path>
                <polygon id="Fill-9" fill="#58595B" mask="url(#mask-4)" points="28.7823 57.0194 28.7823 1.1714 120.0903 1.1714 120.0903 57.0194 120.6103 57.0194 120.6103 0.6514 28.2613 0.6514 28.2613 57.0194"></polygon>
                <polygon id="Fill-10" fill="#58595B" mask="url(#mask-4)" points="120.0904 77.0521 120.0904 92.4791 28.7824 92.4791 28.7824 77.0521 28.2614 77.0521 28.2614 93.0001 120.6104 93.0001 120.6104 77.0521"></polygon>
            </g>
        </g>
    </g>
</svg>

<svg xmlns="http://www.w3.org/2000/svg" xmlns:xlink="http://www.w3.org/1999/xlink" viewBox="0 0 149 93"><defs><path id="a" d="M.827.674h133.57V13.24H.827z"/><path id="c" d="M0 93h148.397V.651H0z"/></defs><g fill="none" fill-rule="evenodd"><path fill="#58595B" d="M5.3 60.164L0 72.447h3.211l.895-2.263h5.37l.877 2.263h3.334L8.51 60.164H5.3zm1.508 3.106l1.755 4.545H5.018l1.79-4.545z"/><g transform="translate(0 -.651)"><g transform="translate(14 60)"><mask id="b" fill="#fff"><use xlink:href="#a"/></mask><path fill="#58595B" d="M12.163 13.098V.816H9.25v7.58L3.582.816H.827V13.1h2.931V5.534l5.65 7.563h2.755zM14.62.816V13.1h5.16c3.947 0 6.65-2.51 6.65-6.143 0-3.65-2.667-6.14-6.528-6.14H14.62zm3.124 2.492h2.088c1.983 0 3.422 1.491 3.422 3.667 0 2.159-1.369 3.633-3.28 3.633h-2.23v-7.3zm17.74 9.791h3.545L36.45 9.046c1.438-.72 2.228-2.07 2.228-3.947 0-2.738-1.86-4.282-5.106-4.282h-5.493v12.282h3.124V9.642h2.456l1.825 3.457zm-4.28-5.914V3.272h2.368c1.351 0 2.14.65 2.14 1.931 0 1.298-.789 1.982-2.14 1.982h-2.369zm19.195-3.913V.817h-9.616v12.282h9.81v-2.457h-6.686V8.169h5.861V5.71h-5.86V3.27h6.491zM66.42 13.1L70.473.814H67.28L64.91 9.853 62.506.815h-3.053l-2.352 9.037L54.697.815h-3.334l4.02 12.284h3.228l2.316-8.493 2.281 8.492h3.211zM82.81.796h-7.354v2.527h4.212v5.722c0 1-.49 1.509-1.316 1.509-.719 0-1.702-.457-2.58-1.37l-1.439 2.088c1.088 1.247 2.493 1.966 4.23 1.966 2.614 0 4.246-1.51 4.246-4.123V.796zM90.88.71c-3.79 0-6.633 2.65-6.633 6.23 0 3.598 2.843 6.3 6.633 6.3 3.808 0 6.651-2.72 6.651-6.3 0-3.562-2.843-6.23-6.65-6.23zm.035 2.616c1.895 0 3.404 1.561 3.404 3.631 0 2.071-1.509 3.668-3.404 3.668-1.877 0-3.475-1.597-3.475-3.668 0-2.07 1.58-3.632 3.475-3.632zm19.601 9.773V.816h-2.914v7.58l-5.668-7.58H99.18V13.1h2.93V5.534l5.65 7.563h2.756zm12.072-9.827V.816h-9.616v12.282h9.81v-2.457h-6.687V8.169h5.861V5.71h-5.86V3.27h6.492zM129.52.675c-2.948 0-4.896 1.439-4.896 3.703 0 4.351 6.493 3.053 6.493 5.229 0 .702-.615 1.07-1.597 1.07-1.28 0-3.176-.736-4.44-1.842l-1.21 2.403c1.456 1.194 3.562 1.966 5.615 1.966 2.737 0 4.913-1.299 4.913-3.756 0-4.439-6.493-3.228-6.493-5.352 0-.597.545-.895 1.352-.895 1 0 2.632.526 3.93 1.281l1.176-2.439c-1.263-.825-3.07-1.369-4.843-1.369z" mask="url(#b)"/></g><path fill="#58595B" d="M97.085 27.926c9.025-10.87 15.415-17.523 19.236-19.96-4.019.263-8.564 1.844-13.57 4.808-3.756 2.24-8.104 5.534-13.044 9.75-3.689 3.294-7.444 6.588-11.134 9.881-3.162-8.563-7.707-12.845-13.636-12.845-2.965 0-5.27 1.185-6.983 3.557-1.515 2.108-2.306 4.677-2.306 7.773 0 4.941 2.437 10.014 7.247 15.086-6.917 4.875-13.373 7.313-19.17 7.313-1.845 0-3.624-.33-5.337-1.054-2.174-.923-3.227-2.174-3.227-3.755.329.263.724.395 1.119.395 1.515 0 2.306-.856 2.306-2.503 0-1.384-.659-2.043-1.976-2.043-1.779 0-2.701 1.252-2.701 3.69 0 1.976 1.186 3.491 3.557 4.611 1.911.922 3.953 1.383 6.127 1.383 6.06 0 12.78-2.503 20.026-7.575 2.043 1.515 3.69 2.57 4.875 3.228 1.383.658 3.228 1.251 5.534 1.844l-1.581 2.503h4.282l1.317-2.173c4.217-.528 8.169-2.043 11.99-4.678l.132-.395-.198-.395-.263.066c-1.779.79-3.558 1.647-5.336 2.503-1.977.922-3.887 1.581-5.6 1.91 12.056-15.086 18.182-22.793 18.314-22.925M79.298 38.862c0-1.45-.197-3.294-.527-5.534 9.816-8.564 15.35-13.307 16.535-14.23 7.445-5.797 13.637-9.156 18.38-10.079-3.162 1.318-9.223 6.917-18.116 16.733-5.863 6.72-11.66 13.505-17.524 20.158a20.128 20.128 0 001.252-7.048M56.834 31.55c0-2.899.791-5.27 2.306-7.18 1.647-2.044 3.886-3.097 6.653-3.097 5.929 0 9.948 3.886 12.056 11.726-1.91 1.91-4.282 4.018-6.983 6.324-.329.263-2.767 2.306-7.313 6.061-4.479-4.744-6.719-9.355-6.719-13.834m7.444 14.294c6.72-5.599 11.331-9.552 13.768-11.857.264 1.45.396 2.898.396 4.282 0 4.545-1.318 8.696-3.887 12.45-3.623-.724-7.049-2.305-10.277-4.875"/><mask id="d" fill="#fff"><use xlink:href="#c"/></mask><path fill="#58595B" d="M38.277 83.386h2.512v-1.037h-2.512v1.037zm14.182-4.339c-1.599 0-2.655.78-2.655 2.008 0 2.36 3.521 1.656 3.521 2.835 0 .381-.333.581-.866.581-.695 0-1.723-.4-2.408-.999l-.656 1.303c.79.647 1.931 1.066 3.044 1.066 1.485 0 2.665-.704 2.665-2.036 0-2.408-3.52-1.751-3.52-2.902 0-.324.294-.486.732-.486.542 0 1.427.286 2.131.695l.638-1.323c-.686-.447-1.666-.742-2.626-.742zm11.516 1.437v-1.37h-5.69v1.37h1.989v5.3h1.693v-5.3h2.008zm9.575-1.361h-1.684v3.864c0 .903-.542 1.455-1.342 1.455-.808 0-1.389-.552-1.389-1.455v-3.864h-1.693v3.864c0 1.76 1.199 2.873 3.073 2.873 1.865 0 3.035-1.113 3.035-2.873v-3.864zm4.076 0v6.661h2.798c2.14 0 3.606-1.361 3.606-3.331 0-1.979-1.446-3.33-3.54-3.33h-2.864zm1.694 1.351h1.132c1.075 0 1.856.81 1.856 1.989 0 1.171-.743 1.97-1.78 1.97H79.32v-3.959zm8.463 5.31h1.693v-6.661h-1.693v6.661zm9.041-6.718c-2.055 0-3.597 1.437-3.597 3.378 0 1.951 1.542 3.416 3.597 3.416 2.065 0 3.606-1.475 3.606-3.416 0-1.931-1.541-3.378-3.606-3.378zm.019 1.418c1.028 0 1.846.847 1.846 1.969 0 1.124-.818 1.989-1.846 1.989-1.018 0-1.884-.865-1.884-1.989 0-1.122.856-1.969 1.884-1.969zm12.261 2.902h2.512v-1.037h-2.512v1.037zM28.782 57.02V1.17h91.308V57.02h.52V.651H28.261V57.02z" mask="url(#d)"/><path fill="#58595B" d="M120.09 77.052V92.48H28.782V77.052h-.52V93h92.348V77.052z" mask="url(#d)"/></g></g></svg>
